source/img/footer-logo.svg

<svg width="136" height="32" viewBox="0 0 136 32" fill="none" xmlns="http://www.w3.org/2000/svg">
<g clip-path="url(#clip0_135_3260)" filter="url(#filter0_d_135_3260)">
<path d="M5.60253 22.0513C4.46836 20.3682 3.90534 18.3503 4.00003 16.3077V7.79487C3.86268 5.73031 4.39044 3.67661 5.50238 1.94872C6.6041 0.615385 8.30676 0 10.8107 0C13.3146 0 14.9171 0.615385 15.9187 1.74359C17.006 3.17255 17.5409 4.96181 17.421 6.76923V8.82051H12.5133V6.46154C12.553 5.76385 12.4507 5.06533 12.2129 4.41026C12.0858 4.14583 11.8843 3.9264 11.6344 3.78018C11.3846 3.63395 11.0977 3.56763 10.8107 3.58974C10.1096 3.58974 9.60879 3.79487 9.40848 4.30769C9.18191 5.03643 9.08025 5.79984 9.10801 6.5641V17.5385C9.05512 18.2799 9.19327 19.0227 9.50864 19.6923C9.70895 20.2051 10.2097 20.4103 10.9108 20.4103C11.6119 20.4103 12.0126 20.2051 12.2129 19.6923C12.4406 18.9992 12.5424 18.2692 12.5133 17.5385V15.0769H17.421V17.1282C17.5229 18.9651 16.9911 20.7803 15.9187 22.2564C14.9171 23.4872 13.2144 24.1026 10.8107 24.1026C8.40692 24 6.6041 23.3846 5.60253 22.0513Z" fill="#111111"/>
<path d="M23.3302 0.307617H29.0391L33.2457 23.6922H28.6385L27.8372 18.7692H24.5321L23.7308 23.6922H19.0235L23.3302 0.307617ZM27.4366 15.6922L26.2347 6.56403L25.0329 15.6922H27.4366Z" fill="#111111"/>
<path d="M36.7512 4.20505H33.3459V0.307617H45.2645V4.10249H41.8592V23.6922H36.7512V4.20505Z" fill="#111111"/>
<path d="M54.3787 0.307617H63.1925V2.76916H57.4836V10.4615H62.0908V12.8204H57.4836V21.4358H63.1925V23.7948H54.2786V0.307617H54.3787Z" fill="#111111"/>
<path d="M65.7966 0.307617H68L74.5102 15.7948V0.307617H77.1142V23.6922H75.1111L68.5008 7.69223V23.6922H65.7966V0.307617Z" fill="#111111"/>
<path d="M80.1189 0.307617H88.9327V2.76916H83.2238V10.4615H87.831V12.8204H83.2238V21.4358H88.9327V23.7948H80.1189V0.307617Z" fill="#111111"/>
<path d="M91.5368 0.3076H96.144C97.9564 0.179397 99.7575 0.685711 101.252 1.7435C102.354 2.66657 102.854 4.3076 102.854 6.46145C102.854 9.4358 101.953 11.282 100.05 11.8973L103.255 23.5897H100.15L97.1455 12.6153H94.6416V23.5897H91.4366V0.3076H91.5368ZM95.9437 10.3589C96.9762 10.446 98.0053 10.1553 98.8482 9.53837C99.4491 9.02555 99.7496 7.99991 99.7496 6.46145C99.7774 5.69719 99.6757 4.93378 99.4491 4.20504C99.2237 3.68211 98.8366 3.24964 98.3474 2.97427C97.6576 2.65236 96.9003 2.51137 96.144 2.56401H94.7418V10.2563H95.9437V10.3589Z" fill="#111111"/>
<path d="M106.861 21.9487C105.82 20.1554 105.331 18.0821 105.459 15.9999V8.20507C105.434 6.71875 105.602 5.23567 105.959 3.79481C106.294 2.71811 106.962 1.78218 107.862 1.12815C108.981 0.450275 110.271 0.128917 111.568 0.20507C113.671 0.20507 115.174 0.71789 116.075 1.8461C117.112 3.33582 117.608 5.14977 117.477 6.9743V7.79481H114.473V7.07687C114.477 6.21789 114.41 5.36008 114.272 4.51276C114.188 3.97732 113.9 3.49792 113.471 3.17943C112.908 2.80104 112.24 2.62099 111.568 2.66661C110.85 2.61949 110.139 2.83785 109.565 3.28199C109.329 3.48529 109.137 3.73569 108.999 4.01787C108.861 4.30004 108.781 4.60805 108.764 4.92302C108.632 5.83993 108.565 6.76543 108.563 7.69225V16.4102C108.49 17.7384 108.694 19.0674 109.164 20.3076C109.565 21.1281 110.366 21.4358 111.568 21.4358C112.043 21.4964 112.524 21.4119 112.952 21.1929C113.38 20.9739 113.734 20.6302 113.972 20.2051C114.501 18.9081 114.741 17.5064 114.673 16.1025V14.4615H111.768V12.1025H117.577V23.6923H115.574L115.274 21.0256C115.011 21.9193 114.465 22.6975 113.72 23.2364C112.976 23.7753 112.078 24.0441 111.167 23.9999C110.34 24.0498 109.513 23.8885 108.761 23.5304C108.01 23.1724 107.357 22.6289 106.861 21.9487Z" fill="#111111"/>
<path d="M123.987 15.4871L119.08 0.410156H122.084L125.59 11.6922L128.995 0.410156H132L127.092 15.4871V23.6922H124.088V15.4871H123.987Z" fill="#111111"/>
</g>
<defs>
<filter id="filter0_d_135_3260" x="0" y="0" width="136" height="32" filterUnits="userSpaceOnUse" color-interpolation-filters="sRGB">
<feFlood flood-opacity="0" result="BackgroundImageFix"/>
<feColorMatrix in="SourceAlpha" type="matrix" values="0 0 0 0 0 0 0 0 0 0 0 0 0 0 0 0 0 0 127 0" result="hardAlpha"/>
<feOffset dy="4"/>
<feGaussianBlur stdDeviation="2"/>
<feComposite in2="hardAlpha" operator="out"/>
<feColorMatrix type="matrix" values="0 0 0 0 0 0 0 0 0 0 0 0 0 0 0 0 0 0 0.25 0"/>
<feBlend mode="normal" in2="BackgroundImageFix" result="effect1_dropShadow_135_3260"/>
<feBlend mode="normal" in="SourceGraphic" in2="effect1_dropShadow_135_3260" result="shape"/>
</filter>
<clipPath id="clip0_135_3260">
<rect width="128" height="24" fill="white" transform="translate(4)"/>
</clipPath>
</defs>
</svg>

<svg width="136" height="32" viewBox="0 0 136 32" fill="none" xmlns="http://www.w3.org/2000/svg"><g clip-path="url(#a)" filter="url(#b)" fill="#111"><path d="M5.6 22.05A9.5 9.5 0 0 1 4 16.31V7.79a9.63 9.63 0 0 1 1.5-5.84C6.6.62 8.3 0 10.81 0c2.5 0 4.1.62 5.1 1.74a7.49 7.49 0 0 1 1.51 5.03v2.05h-4.9V6.46c.03-.7-.07-1.4-.3-2.05a1.46 1.46 0 0 0-.59-.63 1.41 1.41 0 0 0-.82-.19c-.7 0-1.2.2-1.4.72-.23.73-.33 1.49-.3 2.25v10.98c-.05.74.08 1.48.4 2.15.2.52.7.72 1.4.72s1.1-.2 1.3-.72c.23-.7.33-1.42.3-2.15v-2.46h4.91v2.05a7.98 7.98 0 0 1-1.5 5.13c-1 1.23-2.7 1.84-5.1 1.84-2.41-.1-4.22-.72-5.22-2.05ZM23.33.3h5.7l4.22 23.4h-4.61l-.8-4.93h-3.3l-.8 4.92h-4.72L23.33.31Zm4.1 15.4-1.2-9.14-1.2 9.13h2.4ZM36.75 4.2h-3.4V.3h11.91v3.8h-3.4v19.6h-5.1V4.2ZM54.38.3h8.81v2.47h-5.7v7.7h4.6v2.35h-4.6v8.62h5.7v2.35h-8.91V.31h.1ZM65.8.3H68l6.51 15.5V.3h2.6v23.4h-2l-6.6-16v16H65.8V.3ZM80.12.3h8.81v2.47h-5.7v7.7h4.6v2.35h-4.6v8.62h5.7v2.35h-8.81V.31ZM91.54.3h4.6a7.87 7.87 0 0 1 5.11 1.44c1.1.93 1.6 2.57 1.6 4.72 0 2.98-.9 4.82-2.8 5.44l3.2 11.69h-3.1l-3-10.97h-2.5v10.97h-3.21V.31h.1Zm4.4 10.06a4.3 4.3 0 0 0 2.9-.82c.6-.51.91-1.54.91-3.08a6.77 6.77 0 0 0-.3-2.25 2.58 2.58 0 0 0-1.1-1.24 4.47 4.47 0 0 0-2.2-.4h-1.4v7.69h1.2v.1ZM106.86 21.95a10.57 10.57 0 0 1-1.4-5.95V8.2c-.03-1.48.14-2.96.5-4.4a5.2 5.2 0 0 1 1.9-2.67c1.12-.68 2.41-1 3.7-.92 2.11 0 3.61.5 4.52 1.64a7.98 7.98 0 0 1 1.4 5.12v.82h-3v-.71c0-.86-.07-1.72-.2-2.57a2.06 2.06 0 0 0-.8-1.33 3.04 3.04 0 0 0-1.91-.51 2.96 2.96 0 0 0-2 .61 2.3 2.3 0 0 0-.8 1.64c-.14.92-.2 1.85-.2 2.77v8.72a9.53 9.53 0 0 0 .6 3.9c.4.82 1.2 1.13 2.4 1.13a2.37 2.37 0 0 0 2.4-1.23c.53-1.3.77-2.7.7-4.1v-1.65h-2.9V12.1h5.8v11.6h-2l-.3-2.67c-.26.89-.8 1.67-1.55 2.2-.74.55-1.64.81-2.55.77a4.9 4.9 0 0 1-4.3-2.05ZM123.99 15.49 119.08.4h3l3.51 11.28 3.4-11.28H132l-4.9 15.08v8.2h-3.01v-8.2h-.1Z"/></g><defs><clipPath id="a"><path fill="#fff" transform="translate(4)" d="M0 0h128v24H0z"/></clipPath><filter id="b" x="0" y="0" width="136" height="32" filterUnits="userSpaceOnUse" color-interpolation-filters="sRGB"><feFlood flood-opacity="0" result="BackgroundImageFix"/><feColorMatrix in="SourceAlpha" values="0 0 0 0 0 0 0 0 0 0 0 0 0 0 0 0 0 0 127 0" result="hardAlpha"/><feOffset dy="4"/><feGaussianBlur stdDeviation="2"/><feComposite in2="hardAlpha" operator="out"/><feColorMatrix values="0 0 0 0 0 0 0 0 0 0 0 0 0 0 0 0 0 0 0.25 0"/><feBlend in2="BackgroundImageFix" result="effect1_dropShadow_135_3260"/><feBlend in="SourceGraphic" in2="effect1_dropShadow_135_3260" result="shape"/></filter></defs></svg>
